ressources/icons/help-contents.svg

<svg height="16" viewBox="0 0 16 16" width="16" xmlns="http://www.w3.org/2000/svg"><path d="m8 1c-2.21 0-4 1.79-4 4h2c0-1.1.9-2 2-2s2 .9 2 2c0 .55-.2198437 1.0501562-.5898438 1.4101562l-1.2402343 1.2597657c-.72.73-1.1699219 1.7300781-1.1699219 2.8300781v.5h2c0-1.5.4499219-2.1000781 1.169922-2.8300781l.90039-.9199219c.57-.57.929688-1.37.929688-2.25 0-2.21-1.79-4-4-4zm-1 12v2h2v-2z" fill="#404040"/></svg>

<svg xmlns="http://www.w3.org/2000/svg" width="16" height="16" viewBox="0 0 16 16">
 <defs>
  <style id="current-color-scheme" type="text/css">
   .ColorScheme-Text { color:#404040; } .ColorScheme-Highlight { color:#5294e2; }
  </style>
 </defs>
 <path style="fill:currentColor" class="ColorScheme-Text" d="M 8 1 C 5.79 1 4 2.79 4 5 L 6 5 C 6 3.9 6.9 3 8 3 C 9.1 3 10 3.9 10 5 C 10 5.55 9.7801563 6.0501562 9.4101562 6.4101562 L 8.1699219 7.6699219 C 7.4499219 8.3999219 7 9.4 7 10.5 L 7 11 L 9 11 C 9 9.5 9.4499219 8.8999219 10.169922 8.1699219 L 11.070312 7.25 C 11.640312 6.68 12 5.88 12 5 C 12 2.79 10.21 1 8 1 z M 7 13 L 7 15 L 9 15 L 9 13 L 7 13 z"/>
</svg>
